svgs/light/kazoo.svg

<svg xmlns="http://www.w3.org/2000/svg" viewBox="0 0 640 512"><!-- Font Awesome Pro 6.0.0-alpha2 by @fontawesome - https://fontawesome.com License - https://fontawesome.com/license (Commercial License) --><path d="M608 128H480.625C461.125 118.125 439.375 112 416 112S370.875 118.125 351.375 128H241.875C230 128 218.25 129.625 206.75 132.875L23.25 185.375C9.5 189.25 0 201.875 0 216.125V295.875C0 310.125 9.5 322.75 23.25 326.625L206.75 379.125C218.25 382.375 230 384 241.875 384H351.375C370.875 393.875 392.625 400 416 400S461.125 393.875 480.625 384H608C625.625 384 640 369.625 640 352V160C640 142.375 625.625 128 608 128ZM241.875 352C233 352 224.125 350.75 215.5 348.25L32 295.875V216.125L215.5 163.75C224.125 161.25 233 160 241.875 160H308.75C259.75 214.625 259.75 297.375 308.75 352H241.875ZM416 368C354.125 368 304 317.875 304 256S354.125 144 416 144S528 194.125 528 256C527.875 317.875 477.875 367.875 416 368ZM608 352H523.25C572.25 297.375 572.25 214.625 523.25 160H608V352ZM467.312 204.688C461.062 198.438 450.937 198.438 444.688 204.688L416 233.375L387.312 204.688C381.062 198.438 370.937 198.438 364.688 204.688S358.438 221.063 364.688 227.312L393.375 256L364.688 284.688C358.438 290.938 358.438 301.063 364.688 307.312C367.812 310.438 371.906 312 376 312S384.188 310.438 387.312 307.312L416 278.625L444.688 307.312C447.812 310.438 451.906 312 456 312S464.188 310.438 467.312 307.312C473.562 301.062 473.562 290.937 467.312 284.688L438.625 256L467.312 227.312C473.562 221.062 473.562 210.938 467.312 204.688Z"/></svg>

<svg xmlns="http://www.w3.org/2000/svg" viewBox="0 0 640 512"><!--! Font Awesome Pro 6.0.0-alpha3 by @fontawesome - https://fontawesome.com License - https://fontawesome.com/license (Commercial License) --><path d="M608 128h-127.4C461.1 118.1 439.4 112 416 112S370.9 118.1 351.4 128h-109.5C229.1 128 218.3 129.6 206.8 132.9l-183.5 52.5C9.5 189.3 0 201.9 0 216.1v79.75c0 14.25 9.5 26.88 23.25 30.75l183.5 52.5C218.3 382.4 229.1 384 241.9 384h109.5C370.9 393.9 392.6 400 416 400s45.13-6.125 64.63-16H608c17.62 0 32-14.38 32-32V160C640 142.4 625.6 128 608 128zM241.8 351.1c-8.875 0-17.68-1.25-26.31-3.75L32 295.9V216.1l183.5-52.38c8.625-2.5 17.43-3.75 26.31-3.75L308.8 160c-49 54.63-49 137.4 0 192L241.8 351.1zM416 368c-61.88 0-112-50.13-112-112s50.13-112 112-112s112 50.13 112 112C527.9 317.9 477.9 367.9 416 368zM608 352h-84.75c49-54.63 49-137.4 0-192H608V352zM467.3 204.7c-6.25-6.25-16.38-6.25-22.62 0L416 233.4l-28.69-28.69c-6.25-6.25-16.38-6.25-22.62 0s-6.25 16.38 0 22.62L393.4 256l-28.69 28.69c-6.25 6.25-6.25 16.38 0 22.62C367.8 310.4 371.9 312 376 312s8.188-1.562 11.31-4.688L416 278.6l28.69 28.69C447.8 310.4 451.9 312 456 312s8.188-1.562 11.31-4.688c6.25-6.25 6.25-16.38 0-22.62L438.6 256l28.69-28.69C473.6 221.1 473.6 210.9 467.3 204.7z"/></svg>
